icon-svg/apple-watch-alt.svg

<svg xmlns="http://www.w3.org/2000/svg" fill="#44739e" viewBox="0 0 24 24"><path d="M15.63 17.234H8.39a.909.909 0 0 1-.908-.908V7.674a.909.909 0 0 1 .908-.908h7.24a.909.909 0 0 1 .908.908v8.652a.909.909 0 0 1-.908.908M8.39 7.142a.533.533 0 0 0-.533.532v8.652a.533.533 0 0 0 .533.533h7.24a.533.533 0 0 0 .533-.533V7.674a.533.533 0 0 0-.533-.532Zm9.043 1.115a.11.11 0 0 0-.071-.01.04.04 0 0 1-.021.005l-.035.01v-.4a1.838 1.838 0 0 0-.906-1.583l-.077-.046a1.96 1.96 0 0 0-.582-.189 2.38 2.38 0 0 1-.721-1.507c-.02-.22 0-.884 0-.884a1.638 1.638 0 0 0-1.139-1.579 1.57 1.57 0 0 0-.5-.077h-2.754A1.634 1.634 0 0 0 9 3.653s.026.664.006.884a2.44 2.44 0 0 1-.721 1.507 1.91 1.91 0 0 0-.588.194l-.081.046a1.841 1.841 0 0 0-.9 1.574v8.284a1.829 1.829 0 0 0 .946 1.6l.04.021a1.68 1.68 0 0 0 .583.189A2.453 2.453 0 0 1 9 19.463c.02.22-.006.879-.006.879A1.632 1.632 0 0 0 10.627 22h2.764a1.641 1.641 0 0 0 1.635-1.661s-.025-.659 0-.879a2.39 2.39 0 0 1 .721-1.512 1.78 1.78 0 0 0 .588-.189l.035-.021a1.83 1.83 0 0 0 .941-1.6v-.578a.177.177 0 0 0 .153-.153v-2.234a.179.179 0 0 0-.153-.154V10.4l.035.01h.021a.1.1 0 0 0 .071 0c.1-.035.179-.189.179-.393V8.65c-.005-.209-.082-.357-.184-.393m-.47 7.885a1.492 1.492 0 0 1-.756 1.293l-.036.02c-.061.031-.123.056-.184.082a1.44 1.44 0 0 1-.511.092H8.547a1.46 1.46 0 0 1-.511-.092 1.5 1.5 0 0 1-.184-.082l-.036-.02a1.481 1.481 0 0 1-.756-1.293V7.858a1.487 1.487 0 0 1 .71-1.267l.1-.056c.056-.026.113-.051.169-.072a1.42 1.42 0 0 1 .511-.092h6.929a1.41 1.41 0 0 1 .506.092 1.3 1.3 0 0 1 .148.061l.077.041a1.492 1.492 0 0 1 .756 1.293z"/></svg>

<?xml version="1.0" encoding="UTF-8"?>
<svg width="24px" fill="#44739e" height="24px" viewBox="0 0 24 24" version="1.1" xmlns="http://www.w3.org/2000/svg" xmlns:xlink="http://www.w3.org/1999/xlink">
            <path d="M 15.63,17.234 H 8.39 A 0.909,0.909 0 0 1 7.482,16.326 V 7.674 A 0.909,0.909 0 0 1 8.39,6.766 h 7.24 a 0.909,0.909 0 0 1 0.908,0.908 v 8.652 A 0.909,0.909 0 0 1 15.63,17.234 Z M 8.39,7.142 A 0.533,0.533 0 0 0 7.857,7.674 v 8.652 a 0.533,0.533 0 0 0 0.533,0.533 h 7.24 a 0.533,0.533 0 0 0 0.533,-0.533 V 7.674 A 0.533,0.533 0 0 0 15.63,7.142 Z m 9.043,1.115 a 0.111,0.111 0 0 0 -0.071,-0.01 0.041,0.041 0 0 1 -0.021,0.005 l -0.035,0.01 v -0.4 A 1.838,1.838 0 0 0 16.4,6.279 L 16.323,6.233 A 1.956,1.956 0 0 0 15.741,6.044 2.379,2.379 0 0 1 15.02,4.537 c -0.02,-0.22 0,-0.884 0,-0.884 A 1.638,1.638 0 0 0 13.881,2.074 1.574,1.574 0 0 0 13.381,1.997 H 10.627 A 1.634,1.634 0 0 0 9,3.653 c 0,0 0.026,0.664 0.006,0.884 A 2.44,2.44 0 0 1 8.285,6.044 1.909,1.909 0 0 0 7.697,6.238 L 7.616,6.284 a 1.841,1.841 0 0 0 -0.9,1.574 v 8.284 a 1.829,1.829 0 0 0 0.946,1.6 l 0.04,0.021 A 1.678,1.678 0 0 0 8.285,17.952 2.453,2.453 0 0 1 9,19.463 c 0.02,0.22 -0.006,0.879 -0.006,0.879 A 1.632,1.632 0 0 0 10.627,22 h 2.764 a 1.641,1.641 0 0 0 1.635,-1.661 c 0,0 -0.025,-0.659 0,-0.879 a 2.391,2.391 0 0 1 0.721,-1.512 1.782,1.782 0 0 0 0.588,-0.189 l 0.035,-0.021 a 1.83,1.83 0 0 0 0.941,-1.6 V 15.56 a 0.177,0.177 0 0 0 0.153,-0.153 V 13.173 A 0.179,0.179 0 0 0 17.311,13.019 V 10.4 l 0.035,0.01 c 0,0 0.011,0 0.021,0 a 0.1,0.1 0 0 0 0.071,0 c 0.1,-0.035 0.179,-0.189 0.179,-0.393 V 8.65 C 17.612,8.441 17.535,8.293 17.433,8.257 Z m -0.47,7.885 a 1.492,1.492 0 0 1 -0.756,1.293 l -0.036,0.02 c -0.061,0.031 -0.123,0.056 -0.184,0.082 a 1.441,1.441 0 0 1 -0.511,0.092 H 8.547 A 1.461,1.461 0 0 1 8.036,17.537 1.5,1.5 0 0 1 7.852,17.455 L 7.816,17.435 A 1.481,1.481 0 0 1 7.06,16.142 V 7.858 A 1.487,1.487 0 0 1 7.77,6.591 L 7.87,6.535 C 7.926,6.509 7.983,6.484 8.039,6.463 A 1.421,1.421 0 0 1 8.55,6.371 h 6.929 a 1.414,1.414 0 0 1 0.506,0.092 1.309,1.309 0 0 1 0.148,0.061 l 0.077,0.041 a 1.492,1.492 0 0 1 0.756,1.293 z"/>

</svg>
